modules/framework7-icons/icons/data.svg

<?xml version="1.0" encoding="UTF-8"?>
<svg width="44px" height="44px" viewBox="0 0 44 44" version="1.1" xmlns="http://www.w3.org/2000/svg" xmlns:xlink="http://www.w3.org/1999/xlink">
    <!-- Generator: Sketch 40.1 (33804) - http://www.bohemiancoding.com/sketch -->
    <title>data</title>
    <desc>Created with Sketch.</desc>
    <defs></defs>
    <g id="Page-1" stroke="none" stroke-width="1" fill="none" fill-rule="evenodd">
        <g id="data" fill="#000000">
            <path d="M2,16.00077 C2,17.1037877 2.89591038,18 3.99922997,18 L16.00077,18 C17.1037877,18 18,17.1040896 18,16.00077 L18,3.99922997 C18,2.89621234 17.1040896,2 16.00077,2 L3.99922997,2 C2.89621234,2 2,2.89591038 2,3.99922997 L2,16.00077 Z M3.99922997,0 L16.00077,0 C18.2094838,0 20,1.79246765 20,3.99922997 L20,16.00077 C20,18.2094838 18.2075324,20 16.00077,20 L3.99922997,20 C1.79051625,20 0,18.2075324 0,16.00077 L0,3.99922997 C0,1.79051625 1.79246765,0 3.99922997,0 Z" id="Rectangle-15"></path>
            <path d="M26,16.00077 C26,17.1037877 26.8959104,18 27.99923,18 L40.00077,18 C41.1037877,18 42,17.1040896 42,16.00077 L42,3.99922997 C42,2.89621234 41.1040896,2 40.00077,2 L27.99923,2 C26.8962123,2 26,2.89591038 26,3.99922997 L26,16.00077 Z M27.99923,0 L40.00077,0 C42.2094838,0 44,1.79246765 44,3.99922997 L44,16.00077 C44,18.2094838 42.2075324,20 40.00077,20 L27.99923,20 C25.7905162,20 24,18.2075324 24,16.00077 L24,3.99922997 C24,1.79051625 25.7924676,0 27.99923,0 Z" id="Rectangle-15"></path>
            <path d="M26,40.00077 C26,41.1037877 26.8959104,42 27.99923,42 L40.00077,42 C41.1037877,42 42,41.1040896 42,40.00077 L42,27.99923 C42,26.8962123 41.1040896,26 40.00077,26 L27.99923,26 C26.8962123,26 26,26.8959104 26,27.99923 L26,40.00077 Z M27.99923,24 L40.00077,24 C42.2094838,24 44,25.7924676 44,27.99923 L44,40.00077 C44,42.2094838 42.2075324,44 40.00077,44 L27.99923,44 C25.7905162,44 24,42.2075324 24,40.00077 L24,27.99923 C24,25.7905162 25.7924676,24 27.99923,24 Z" id="Rectangle-15"></path>
            <path d="M2,40.00077 C2,41.1037877 2.89591038,42 3.99922997,42 L16.00077,42 C17.1037877,42 18,41.1040896 18,40.00077 L18,27.99923 C18,26.8962123 17.1040896,26 16.00077,26 L3.99922997,26 C2.89621234,26 2,26.8959104 2,27.99923 L2,40.00077 Z M3.99922997,24 L16.00077,24 C18.2094838,24 20,25.7924676 20,27.99923 L20,40.00077 C20,42.2094838 18.2075324,44 16.00077,44 L3.99922997,44 C1.79051625,44 0,42.2075324 0,40.00077 L0,27.99923 C0,25.7905162 1.79246765,24 3.99922997,24 Z" id="Rectangle-15"></path>
        </g>
    </g>
</svg>

<svg width="44" height="44" viewBox="0 0 44 44" xmlns="http://www.w3.org/2000/svg"><g fill="#000" fill-rule="evenodd"><path d="M2 16a2 2 0 0 0 2 2h12a2 2 0 0 0 2-2V4a2 2 0 0 0-2-2H4a2 2 0 0 0-2 2v12zM4 0h12a4 4 0 0 1 4 4v12a4 4 0 0 1-4 4H4a4 4 0 0 1-4-4V4a4 4 0 0 1 4-4zM26 16a2 2 0 0 0 2 2h12a2 2 0 0 0 2-2V4a2 2 0 0 0-2-2H28a2 2 0 0 0-2 2v12zm2-16h12a4 4 0 0 1 4 4v12a4 4 0 0 1-4 4H28a4 4 0 0 1-4-4V4a4 4 0 0 1 4-4zM26 40a2 2 0 0 0 2 2h12a2 2 0 0 0 2-2V28a2 2 0 0 0-2-2H28a2 2 0 0 0-2 2v12zm2-16h12a4 4 0 0 1 4 4v12a4 4 0 0 1-4 4H28a4 4 0 0 1-4-4V28a4 4 0 0 1 4-4zM2 40a2 2 0 0 0 2 2h12a2 2 0 0 0 2-2V28a2 2 0 0 0-2-2H4a2 2 0 0 0-2 2v12zm2-16h12a4 4 0 0 1 4 4v12a4 4 0 0 1-4 4H4a4 4 0 0 1-4-4V28a4 4 0 0 1 4-4z"/></g></svg>
